img/logos/Microsoft/CnE_Cloud/SVG/Azure Data Factory.svg

<?xml version="1.0" encoding="UTF-8" standalone="no"?>
<!-- Generator: Adobe Illustrator 18.1.0, SVG Export Plug-In . SVG Version: 6.00 Build 0)  -->

<svg
   xmlns:dc="http://purl.org/dc/elements/1.1/"
   xmlns:cc="http://creativecommons.org/ns#"
   xmlns:rdf="http://www.w3.org/1999/02/22-rdf-syntax-ns#"
   xmlns:svg="http://www.w3.org/2000/svg"
   xmlns="http://www.w3.org/2000/svg"
   xmlns:sodipodi="http://sodipodi.sourceforge.net/DTD/sodipodi-0.dtd"
   xmlns:inkscape="http://www.inkscape.org/namespaces/inkscape"
   version="1.0"
   x="0px"
   y="0px"
   viewBox="0 0 42 42"
   enable-background="new 0 0 152 117.5"
   xml:space="preserve"
   id="svg242"
   sodipodi:docname="Azure Data Factory.svg"
   width="42"
   height="42"
   inkscape:version="0.92.3 (2405546, 2018-03-11)"><metadata
   id="metadata248"><rdf:RDF><cc:Work
       rdf:about=""><dc:format>image/svg+xml</dc:format><dc:type
         rdf:resource="http://purl.org/dc/dcmitype/StillImage" /><dc:title></dc:title></cc:Work></rdf:RDF></metadata><defs
   id="defs246" /><sodipodi:namedview
   pagecolor="#ffffff"
   bordercolor="#666666"
   borderopacity="1"
   objecttolerance="10"
   gridtolerance="10"
   guidetolerance="10"
   inkscape:pageopacity="0"
   inkscape:pageshadow="2"
   inkscape:window-width="3840"
   inkscape:window-height="2004"
   id="namedview244"
   showgrid="false"
   inkscape:zoom="39.646123"
   inkscape:cx="32.909155"
   inkscape:cy="17.886607"
   inkscape:window-x="-16"
   inkscape:window-y="2864"
   inkscape:window-maximized="1"
   inkscape:current-layer="svg242" />
<g
   id="Layer_1"
   transform="translate(-54.922545,-37.577454)">
	<g
   id="Azure">
	</g>
	<g
   id="BizTalk_Services"
   transform="translate(37.3575,-2500.2)">
	</g>
	<path
   d="m 96.7,62.4 v 0 -10 L 85.3,62.3 H 85 v -9.9 l -11.4,9.9 v 0 -20.8 c 0,-1.7 -3.9,-3.5 -9,-3.5 -5.1,0 -9.4,1.7 -9.4,3.5 v 37.8 h 18.2 v 0 H 96.7 Z M 64.6,43.2 c -3.7,0 -6.7,-0.9 -6.7,-1.9 0,-1 3,-1.9 6.7,-1.9 3.7,0 6.7,0.8 6.7,1.9 0,1 -3,1.9 -6.7,1.9 z m 19.6,29.5 h -4.6 v -4.6 h 4.6 z m -8,0 h -4.6 v -4.6 h 4.6 z m 11.6,0 v -4.6 h 4.6 v 4.6 z"
   id="path226"
   inkscape:connector-curvature="0"
   style="fill:#006fd4" />
</g>
<g
   id="paths"
   transform="translate(-55.2,-37.299999)">
	<g
   id="Access_control">
	</g>
	<g
   id="Azure_active_directory">
	</g>
	<g
   id="API_Management">
	</g>
	<g
   id="Azure_automation">
	</g>
	<g
   id="Azure_SQL_database">
	</g>
	<g
   id="Azure_subscription">
	</g>
	<g
   id="Backup_service">
	</g>
	<g
   id="Bitbucket_code_source">
	</g>
	<g
   id="Azure_cache">
	</g>
	<g
   id="Content_delivery_network__x28_CDN_x29_">
	</g>
	<g
   id="Cloud_service">
	</g>
	<g
   id="CodePlex">
	</g>
</g>
</svg>

<?xml version="1.0" encoding="utf-8"?>
<!-- Generator: Adobe Illustrator 18.1.0, SVG Export Plug-In . SVG Version: 6.00 Build 0)  -->
<!DOCTYPE svg PUBLIC "-//W3C//DTD SVG 1.0//EN" "http://www.w3.org/TR/2001/REC-SVG-20010904/DTD/svg10.dtd">
<svg version="1.0" xmlns="http://www.w3.org/2000/svg" xmlns:xlink="http://www.w3.org/1999/xlink" x="0px" y="0px"
	 viewBox="0 0 152 117.5" enable-background="new 0 0 152 117.5" xml:space="preserve">
<g id="Layer_1">
	<g id="Azure">
	</g>
	<g id="BizTalk_Services" transform="translate(37.3575,-2500.2)">
	</g>
	<path fill="#006FD4" d="M96.7,62.4L96.7,62.4v-10l-11.4,9.9H85v-9.9l-11.4,9.9l0,0V41.5c0-1.7-3.9-3.5-9-3.5
		c-5.1,0-9.4,1.7-9.4,3.5v37.8h18.2l0,0h23.3L96.7,62.4z M64.6,43.2c-3.7,0-6.7-0.9-6.7-1.9c0-1,3-1.9,6.7-1.9
		c3.7,0,6.7,0.8,6.7,1.9C71.3,42.3,68.3,43.2,64.6,43.2z M84.2,72.7h-4.6v-4.6h4.6V72.7z M76.2,72.7h-4.6v-4.6h4.6V72.7z M87.8,72.7
		v-4.6h4.6v4.6H87.8z"/>
</g>
<g id="paths">
	<g id="Access_control">
	</g>
	<g id="Azure_active_directory">
	</g>
	<g id="API_Management">
	</g>
	<g id="Azure_automation">
	</g>
	<g id="Azure_SQL_database">
	</g>
	<g id="Azure_subscription">
	</g>
	<g id="Backup_service">
	</g>
	<g id="Bitbucket_code_source">
	</g>
	<g id="Azure_cache">
	</g>
	<g id="Content_delivery_network__x28_CDN_x29_">
	</g>
	<g id="Cloud_service">
	</g>
	<g id="CodePlex">
	</g>
</g>
</svg>
